markup/images/decore-line11.svg

<svg xmlns="http://www.w3.org/2000/svg" width="6093" height="41"><path fill-rule="evenodd" fill="#53E9B3" d="M6059.065 40.99c-25.526 0-45.443-8.184-64.706-16.099-19.18-7.882-37.297-15.327-60.776-15.327-23.478 0-41.595 7.445-60.776 15.327-19.261 7.915-39.179 16.099-64.705 16.099-25.525 0-45.443-8.184-64.705-16.099-19.181-7.882-37.298-15.327-60.775-15.327-23.479 0-41.596 7.445-60.777 15.327-19.262 7.915-39.18 16.099-64.704 16.099-25.526 0-45.444-8.184-64.706-16.099-19.181-7.882-37.298-15.327-60.776-15.327s-41.595 7.445-60.776 15.327c-9.856 4.05-19.884 8.17-30.747 11.229l.004.011c-11.619 3.27-22.72 4.859-33.936 4.859h-.026c-11.217 0-22.317-1.589-33.937-4.859l.004-.011c-10.862-3.059-20.89-7.179-30.746-11.229-19.181-7.882-37.297-15.327-60.776-15.327-23.478 0-41.595 7.445-60.776 15.327-19.261 7.915-39.179 16.099-64.705 16.099-25.526 0-45.443-8.184-64.705-16.099-19.181-7.882-37.298-15.327-60.775-15.327-23.479 0-41.596 7.445-60.777 15.327-19.262 7.915-39.18 16.099-64.705 16.099s-45.444-8.184-64.705-16.099c-19.181-7.882-37.299-15.327-60.776-15.327-23.478 0-41.595 7.445-60.776 15.327-19.263 7.915-39.181 16.099-64.705 16.099-.329 0-.657-.001-.986-.004-.328.003-.656.004-.985.004-25.525 0-45.443-8.184-64.705-16.099-19.181-7.882-37.298-15.327-60.776-15.327s-41.596 7.445-60.776 15.327c-19.261 7.915-39.179 16.099-64.706 16.099-25.525 0-45.442-8.184-64.705-16.099-19.18-7.882-37.297-15.327-60.775-15.327s-41.595 7.445-60.776 15.327c-19.262 7.915-39.18 16.099-64.705 16.099s-45.444-8.184-64.705-16.099c-19.182-7.882-37.299-15.327-60.776-15.327-23.478 0-41.595 7.445-60.776 15.327-9.856 4.05-19.885 8.17-30.747 11.229l.003.011c-11.619 3.27-22.72 4.859-33.935 4.859h-.026c-11.217 0-22.318-1.589-33.937-4.859l.004-.011c-10.863-3.059-20.89-7.179-30.746-11.229-19.181-7.882-37.298-15.327-60.776-15.327-23.479 0-41.596 7.445-60.776 15.327-19.262 7.915-39.179 16.099-64.705 16.099-25.526 0-45.443-8.184-64.706-16.099-19.18-7.882-37.298-15.327-60.775-15.327-23.478 0-41.595 7.445-60.777 15.327-19.261 7.915-39.18 16.099-64.704 16.099-25.526 0-45.444-8.184-64.705-16.099-19.182-7.882-37.299-15.327-60.776-15.327-23.479 0-41.596 7.445-60.777 15.327-9.361 3.847-18.877 7.757-29.116 10.76l.146.48c-11.619 3.27-22.72 4.859-33.935 4.859-.301 0-.601-.001-.9-.003-.299.002-.599.003-.9.003-11.216 0-22.317-1.589-33.936-4.859l.147-.48c-10.239-3.003-19.755-6.913-29.116-10.76-19.181-7.882-37.298-15.327-60.776-15.327-23.479 0-41.596 7.445-60.776 15.327-19.262 7.915-39.179 16.099-64.705 16.099-25.526 0-45.443-8.184-64.706-16.099-19.18-7.882-37.298-15.327-60.775-15.327-23.478 0-41.595 7.445-60.777 15.327-19.261 7.915-39.18 16.099-64.704 16.099-25.526 0-45.444-8.184-64.705-16.099-19.182-7.882-37.299-15.327-60.777-15.327s-41.595 7.445-60.776 15.327c-9.856 4.05-19.884 8.17-30.747 11.229l.004.011c-11.619 3.27-22.719 4.859-33.936 4.859h-.026c-11.216 0-22.317-1.589-33.936-4.859l.003-.011c-10.862-3.059-20.89-7.179-30.746-11.229-19.18-7.882-37.297-15.327-60.776-15.327-23.478 0-41.595 7.445-60.776 15.327-19.261 7.915-39.179 16.099-64.705 16.099-25.525 0-45.443-8.184-64.705-16.099-19.181-7.882-37.298-15.327-60.775-15.327-23.479 0-41.595 7.445-60.777 15.327-19.262 7.915-39.18 16.099-64.704 16.099-25.526 0-45.444-8.184-64.706-16.099-19.181-7.882-37.299-15.327-60.776-15.327-23.478 0-41.595 7.445-60.776 15.327-19.262 7.915-39.18 16.099-64.705 16.099-.329 0-.657-.001-.985-.004-.329.003-.657.004-.986.004-25.525 0-45.442-8.184-64.705-16.099-19.18-7.882-37.297-15.327-60.776-15.327-23.478 0-41.595 7.445-60.776 15.327-19.261 7.915-39.179 16.099-64.705 16.099-25.526 0-45.443-8.184-64.705-16.099-19.181-7.882-37.298-15.327-60.775-15.327-23.479 0-41.596 7.445-60.777 15.327-19.262 7.915-39.18 16.099-64.705 16.099s-45.444-8.184-64.705-16.099c-19.182-7.882-37.299-15.327-60.776-15.327-23.478 0-41.595 7.445-60.776 15.327-9.856 4.05-19.884 8.17-30.747 11.229l.003.011c-11.619 3.27-22.719 4.859-33.935 4.859h-.026c-11.217 0-22.318-1.589-33.937-4.859l.004-.011c-10.863-3.059-20.89-7.179-30.746-11.229-19.181-7.882-37.298-15.327-60.776-15.327-23.479 0-41.596 7.445-60.776 15.327-19.262 7.915-39.179 16.099-64.705 16.099-25.526 0-45.443-8.184-64.706-16.099-19.18-7.882-37.297-15.327-60.775-15.327s-41.595 7.445-60.777 15.327c-19.261 7.915-39.18 16.099-64.704 16.099-25.525 0-45.444-8.184-64.705-16.099-19.182-7.882-37.299-15.327-60.776-15.327-23.478 0-41.596 7.445-60.776 15.327C79.379 32.806 59.46 40.99 33.936 40.99c-11.217 0-22.318-1.589-33.937-4.859l2.81-9.192c10.692 3.008 20.874 4.471 31.127 4.471 23.478 0 41.595-7.445 60.776-15.326 19.262-7.915 39.18-16.099 64.705-16.099 25.524 0 45.443 8.184 64.704 16.099 19.182 7.881 37.299 15.326 60.777 15.326 23.477 0 41.595-7.444 60.776-15.326 19.262-7.915 39.18-16.099 64.705-16.099s45.442 8.184 64.705 16.099c19.18 7.881 37.297 15.326 60.776 15.326 23.479 0 41.596-7.445 60.776-15.326C615.898 8.169 635.815-.015 661.341-.015c25.525 0 45.442 8.184 64.705 16.099 9.864 4.053 19.446 7.991 29.621 10.859l.002-.004c9.834 2.766 19.235 4.226 28.656 4.443l.144.003.296.006.29.005.189.003.409.005.096.001a124.262 124.262 0 0 0 2.12 0l.097-.001.407-.005.191-.003.287-.005.301-.006.138-.003c9.421-.217 18.823-1.677 28.661-4.443l.001.004c10.174-2.869 19.757-6.806 29.62-10.859C866.834 8.169 886.753-.015 912.277-.015s45.443 8.184 64.704 16.099c19.182 7.881 37.299 15.326 60.777 15.326s41.595-7.444 60.776-15.326c19.262-7.915 39.18-16.099 64.706-16.099 25.524 0 45.442 8.184 64.704 16.099 19.18 7.881 37.298 15.326 60.776 15.326 23.479 0 41.596-7.445 60.777-15.326 19.261-7.915 39.179-16.099 64.704-16.099 25.525 0 45.443 8.184 64.705 16.099 10.457 4.297 20.598 8.464 31.464 11.365l.156-.51c10.35 2.911 20.221 4.376 30.142 4.467 9.919-.091 19.79-1.556 30.142-4.467l.156.51c10.866-2.902 21.006-7.068 31.463-11.365 19.263-7.915 39.181-16.099 64.705-16.099 25.525 0 45.443 8.184 64.704 16.099 19.182 7.881 37.299 15.326 60.778 15.326 23.477 0 41.594-7.444 60.775-15.326 19.262-7.915 39.181-16.099 64.706-16.099 25.524 0 45.442 8.184 64.704 16.099 19.181 7.881 37.298 15.326 60.776 15.326 23.479 0 41.597-7.445 60.777-15.326 19.262-7.915 39.179-16.099 64.704-16.099 25.526 0 45.443 8.184 64.705 16.099 9.864 4.053 19.447 7.991 29.622 10.859l.001-.004c9.834 2.766 19.235 4.226 28.657 4.443a325.117 325.117 0 0 0 .44.009l.29.005.188.003.409.005.096.001a124.458 124.458 0 0 0 2.12 0l.098-.001.406-.005.192-.003.286-.005.301-.006.138-.003c9.422-.217 18.824-1.677 28.661-4.443l.002.004c10.174-2.869 19.756-6.806 29.619-10.859 19.263-7.915 39.181-16.099 64.705-16.099 25.525 0 45.443 8.184 64.705 16.099 19.181 7.881 37.299 15.326 60.777 15.326 23.477 0 41.594-7.444 60.776-15.326 19.261-7.915 39.18-16.099 64.705-16.099 25.524 0 45.442 8.184 64.704 16.099 19.181 7.881 37.298 15.326 60.777 15.326s41.596-7.445 60.776-15.326c19.262-7.915 39.179-16.099 64.705-16.099 25.525 0 45.442 8.184 64.705 16.099 18.935 7.78 36.833 15.135 59.876 15.322 23.043-.187 40.942-7.542 59.876-15.322 19.263-7.915 39.181-16.099 64.706-16.099 25.524 0 45.442 8.184 64.704 16.099 19.181 7.881 37.299 15.326 60.777 15.326 23.477 0 41.594-7.444 60.776-15.326 19.261-7.915 39.18-16.099 64.705-16.099 25.524 0 45.442 8.184 64.704 16.099 19.181 7.881 37.298 15.326 60.777 15.326s41.596-7.445 60.776-15.326c19.262-7.915 39.179-16.099 64.705-16.099 25.525 0 45.442 8.184 64.705 16.099 9.863 4.053 19.446 7.991 29.621 10.859l.001-.004c9.834 2.766 19.235 4.226 28.657 4.443a325.117 325.117 0 0 1 .44.009l.29.005.189.003.409.005.096.001a124.262 124.262 0 0 0 2.119 0l.098-.001.407-.005.191-.003.287-.005.301-.006.137-.003c9.422-.217 18.824-1.677 28.661-4.443l.001.004c10.175-2.869 19.757-6.806 29.621-10.859 19.262-7.915 39.181-16.099 64.705-16.099s45.443 8.184 64.704 16.099c19.182 7.881 37.299 15.326 60.777 15.326 23.477 0 41.594-7.444 60.776-15.326 19.261-7.915 39.18-16.099 64.705-16.099s45.442 8.184 64.705 16.099c19.18 7.881 37.297 15.326 60.775 15.326 23.48 0 41.597-7.445 60.778-15.326 19.261-7.915 39.179-16.099 64.704-16.099 25.525 0 45.443 8.184 64.705 16.099 10.457 4.297 20.598 8.464 31.464 11.365l.156-.51c10.35 2.911 20.221 4.376 30.141 4.467 9.92-.091 19.791-1.556 30.143-4.467l.156.51c10.866-2.902 21.006-7.068 31.463-11.365 19.262-7.915 39.181-16.099 64.705-16.099s45.443 8.184 64.704 16.099c19.182 7.881 37.299 15.326 60.777 15.326s41.595-7.444 60.776-15.326c19.262-7.915 39.18-16.099 64.706-16.099 25.524 0 45.442 8.184 64.704 16.099 19.18 7.881 37.297 15.326 60.776 15.326 23.479 0 41.596-7.445 60.777-15.326 19.261-7.915 39.179-16.099 64.704-16.099 25.525 0 45.443 8.184 64.705 16.099 9.864 4.053 19.447 7.991 29.622 10.859l.001-.004c9.834 2.766 19.235 4.226 28.657 4.443a325.117 325.117 0 0 0 .439.009l.291.005.188.003.409.005.096.001a124.458 124.458 0 0 0 2.12 0l.098-.001.406-.005.191-.003.287-.005.301-.006.138-.003c9.422-.217 18.824-1.677 28.661-4.443l.001.004c10.175-2.869 19.757-6.806 29.62-10.859 19.262-7.915 39.181-16.099 64.705-16.099 25.525 0 45.443 8.184 64.705 16.099 19.181 7.881 37.298 15.326 60.777 15.326 23.477 0 41.594-7.444 60.775-15.326 19.262-7.915 39.181-16.099 64.706-16.099 25.524 0 45.442 8.184 64.704 16.099 19.181 7.881 37.298 15.326 60.776 15.326 23.479 0 41.596-7.445 60.777-15.326 19.261-7.915 39.179-16.099 64.704-16.099 25.526 0 45.443 8.184 64.705 16.099 19.181 7.881 37.298 15.326 60.777 15.326 10.251 0 20.433-1.463 31.128-4.471l2.807 9.192c-11.619 3.27-22.72 4.859-33.935 4.859z"/></svg>

<svg 
 xmlns="http://www.w3.org/2000/svg"
 xmlns:xlink="http://www.w3.org/1999/xlink"
 width="6093px" height="41px">
<path fill-rule="evenodd"  fill="rgb(83, 233, 179)"
 d="M6059.065,40.990 C6033.539,40.990 6013.622,32.806 5994.359,24.891 C5975.179,17.009 5957.062,9.564 5933.583,9.564 C5910.105,9.564 5891.988,17.009 5872.807,24.891 C5853.546,32.806 5833.628,40.990 5808.102,40.990 C5782.577,40.990 5762.659,32.806 5743.397,24.891 C5724.216,17.009 5706.099,9.564 5682.622,9.564 C5659.143,9.564 5641.026,17.009 5621.845,24.891 C5602.583,32.806 5582.665,40.990 5557.141,40.990 C5531.615,40.990 5511.697,32.806 5492.435,24.891 C5473.254,17.009 5455.137,9.564 5431.659,9.564 C5408.181,9.564 5390.064,17.009 5370.883,24.891 C5361.027,28.941 5350.999,33.061 5340.136,36.120 L5340.140,36.131 C5328.521,39.401 5317.420,40.990 5306.204,40.990 C5306.200,40.990 5306.196,40.990 5306.191,40.990 C5306.187,40.990 5306.183,40.990 5306.178,40.990 C5294.961,40.990 5283.861,39.401 5272.241,36.131 L5272.245,36.120 C5261.383,33.061 5251.355,28.941 5241.499,24.891 C5222.318,17.009 5204.202,9.564 5180.723,9.564 C5157.245,9.564 5139.128,17.009 5119.947,24.891 C5100.686,32.806 5080.768,40.990 5055.242,40.990 C5029.716,40.990 5009.799,32.806 4990.537,24.891 C4971.356,17.009 4953.239,9.564 4929.762,9.564 C4906.283,9.564 4888.166,17.009 4868.985,24.891 C4849.723,32.806 4829.805,40.990 4804.280,40.990 C4778.755,40.990 4758.836,32.806 4739.575,24.891 C4720.394,17.009 4702.276,9.564 4678.799,9.564 C4655.321,9.564 4637.204,17.009 4618.023,24.891 C4598.760,32.806 4578.842,40.990 4553.318,40.990 C4552.989,40.990 4552.661,40.989 4552.332,40.986 C4552.004,40.989 4551.676,40.990 4551.347,40.990 C4525.822,40.990 4505.904,32.806 4486.642,24.891 C4467.461,17.009 4449.344,9.564 4425.866,9.564 C4402.388,9.564 4384.270,17.009 4365.090,24.891 C4345.829,32.806 4325.911,40.990 4300.384,40.990 C4274.859,40.990 4254.942,32.806 4235.679,24.891 C4216.499,17.009 4198.382,9.564 4174.904,9.564 C4151.426,9.564 4133.309,17.009 4114.128,24.891 C4094.866,32.806 4074.948,40.990 4049.423,40.990 C4023.898,40.990 4003.979,32.806 3984.718,24.891 C3965.536,17.009 3947.419,9.564 3923.942,9.564 C3900.464,9.564 3882.347,17.009 3863.166,24.891 C3853.310,28.941 3843.281,33.061 3832.419,36.120 L3832.422,36.131 C3820.803,39.401 3809.702,40.990 3798.487,40.990 C3798.482,40.990 3798.478,40.990 3798.474,40.990 C3798.469,40.990 3798.465,40.990 3798.461,40.990 C3787.244,40.990 3776.143,39.401 3764.524,36.131 L3764.528,36.120 C3753.665,33.061 3743.638,28.941 3733.782,24.891 C3714.601,17.009 3696.484,9.564 3673.006,9.564 C3649.527,9.564 3631.410,17.009 3612.230,24.891 C3592.968,32.806 3573.051,40.990 3547.525,40.990 C3521.999,40.990 3502.082,32.806 3482.819,24.891 C3463.639,17.009 3445.521,9.564 3422.044,9.564 C3398.566,9.564 3380.449,17.009 3361.267,24.891 C3342.006,32.806 3322.087,40.990 3296.563,40.990 C3271.037,40.990 3251.119,32.806 3231.858,24.891 C3212.676,17.009 3194.559,9.564 3171.082,9.564 C3147.603,9.564 3129.486,17.009 3110.305,24.891 C3100.944,28.738 3091.428,32.648 3081.189,35.651 L3081.335,36.131 C3069.716,39.401 3058.615,40.990 3047.400,40.990 C3047.099,40.990 3046.799,40.989 3046.500,40.987 C3046.201,40.989 3045.901,40.990 3045.600,40.990 C3034.384,40.990 3023.283,39.401 3011.664,36.131 L3011.811,35.651 C3001.572,32.648 2992.056,28.738 2982.695,24.891 C2963.514,17.009 2945.397,9.564 2921.919,9.564 C2898.440,9.564 2880.323,17.009 2861.143,24.891 C2841.881,32.806 2821.964,40.990 2796.438,40.990 C2770.912,40.990 2750.995,32.806 2731.732,24.891 C2712.552,17.009 2694.434,9.564 2670.957,9.564 C2647.479,9.564 2629.362,17.009 2610.180,24.891 C2590.919,32.806 2571.000,40.990 2545.476,40.990 C2519.950,40.990 2500.032,32.806 2480.771,24.891 C2461.589,17.009 2443.472,9.564 2419.994,9.564 C2396.516,9.564 2378.399,17.009 2359.218,24.891 C2349.362,28.941 2339.334,33.061 2328.471,36.120 L2328.475,36.131 C2316.856,39.401 2305.756,40.990 2294.539,40.990 C2294.535,40.990 2294.531,40.990 2294.526,40.990 C2294.522,40.990 2294.518,40.990 2294.513,40.990 C2283.297,40.990 2272.196,39.401 2260.577,36.131 L2260.580,36.120 C2249.718,33.061 2239.690,28.941 2229.834,24.891 C2210.654,17.009 2192.537,9.564 2169.058,9.564 C2145.580,9.564 2127.463,17.009 2108.282,24.891 C2089.021,32.806 2069.103,40.990 2043.577,40.990 C2018.052,40.990 1998.134,32.806 1978.872,24.891 C1959.691,17.009 1941.574,9.564 1918.097,9.564 C1894.618,9.564 1876.502,17.009 1857.320,24.891 C1838.058,32.806 1818.140,40.990 1792.616,40.990 C1767.090,40.990 1747.172,32.806 1727.910,24.891 C1708.729,17.009 1690.611,9.564 1667.134,9.564 C1643.656,9.564 1625.539,17.009 1606.358,24.891 C1587.096,32.806 1567.178,40.990 1541.653,40.990 C1541.324,40.990 1540.996,40.989 1540.668,40.986 C1540.339,40.989 1540.011,40.990 1539.682,40.990 C1514.157,40.990 1494.240,32.806 1474.977,24.891 C1455.797,17.009 1437.680,9.564 1414.201,9.564 C1390.723,9.564 1372.606,17.009 1353.425,24.891 C1334.164,32.806 1314.246,40.990 1288.720,40.990 C1263.194,40.990 1243.277,32.806 1224.015,24.891 C1204.834,17.009 1186.717,9.564 1163.240,9.564 C1139.761,9.564 1121.644,17.009 1102.463,24.891 C1083.201,32.806 1063.283,40.990 1037.758,40.990 C1012.233,40.990 992.314,32.806 973.053,24.891 C953.871,17.009 935.754,9.564 912.277,9.564 C888.799,9.564 870.682,17.009 851.501,24.891 C841.645,28.941 831.617,33.061 820.754,36.120 L820.757,36.131 C809.138,39.401 798.038,40.990 786.822,40.990 C786.818,40.990 786.813,40.990 786.809,40.990 C786.805,40.990 786.800,40.990 786.796,40.990 C775.579,40.990 764.478,39.401 752.859,36.131 L752.863,36.120 C742.000,33.061 731.973,28.941 722.117,24.891 C702.936,17.009 684.819,9.564 661.341,9.564 C637.862,9.564 619.745,17.009 600.565,24.891 C581.303,32.806 561.386,40.990 535.860,40.990 C510.334,40.990 490.417,32.806 471.154,24.891 C451.974,17.009 433.857,9.564 410.379,9.564 C386.901,9.564 368.784,17.009 349.602,24.891 C330.341,32.806 310.422,40.990 284.898,40.990 C259.373,40.990 239.454,32.806 220.193,24.891 C201.011,17.009 182.894,9.564 159.417,9.564 C135.939,9.564 117.821,17.009 98.641,24.891 C79.379,32.806 59.460,40.990 33.936,40.990 C22.719,40.990 11.618,39.401 -0.001,36.131 L2.809,26.939 C13.501,29.947 23.683,31.410 33.936,31.410 C57.414,31.410 75.531,23.965 94.712,16.084 C113.974,8.169 133.892,-0.015 159.417,-0.015 C184.941,-0.015 204.860,8.169 224.121,16.084 C243.303,23.965 261.420,31.410 284.898,31.410 C308.375,31.410 326.493,23.966 345.674,16.084 C364.936,8.169 384.854,-0.015 410.379,-0.015 C435.904,-0.015 455.821,8.169 475.084,16.084 C494.264,23.965 512.381,31.410 535.860,31.410 C559.339,31.410 577.456,23.965 596.636,16.084 C615.898,8.169 635.815,-0.015 661.341,-0.015 C686.866,-0.015 706.783,8.169 726.046,16.084 C735.910,20.137 745.492,24.075 755.667,26.943 L755.669,26.939 C765.503,29.705 774.904,31.165 784.325,31.382 C784.373,31.383 784.421,31.384 784.469,31.385 C784.567,31.387 784.666,31.389 784.765,31.391 C784.862,31.393 784.959,31.394 785.055,31.396 C785.118,31.397 785.181,31.398 785.244,31.399 C785.380,31.401 785.516,31.402 785.653,31.404 C785.685,31.404 785.717,31.405 785.749,31.405 C786.101,31.408 786.454,31.410 786.809,31.410 C787.163,31.410 787.517,31.408 787.869,31.405 C787.901,31.405 787.934,31.404 787.966,31.404 C788.102,31.402 788.238,31.401 788.373,31.399 C788.437,31.398 788.500,31.397 788.564,31.396 C788.660,31.394 788.756,31.393 788.851,31.391 C788.951,31.389 789.052,31.387 789.152,31.385 C789.198,31.384 789.244,31.383 789.290,31.382 C798.711,31.165 808.113,29.705 817.951,26.939 L817.952,26.943 C828.126,24.074 837.709,20.137 847.572,16.084 C866.834,8.169 886.753,-0.015 912.277,-0.015 C937.801,-0.015 957.720,8.169 976.981,16.084 C996.163,23.965 1014.280,31.410 1037.758,31.410 C1061.236,31.410 1079.353,23.966 1098.534,16.084 C1117.796,8.169 1137.714,-0.015 1163.240,-0.015 C1188.764,-0.015 1208.682,8.169 1227.944,16.084 C1247.124,23.965 1265.242,31.410 1288.720,31.410 C1312.199,31.410 1330.316,23.965 1349.497,16.084 C1368.758,8.169 1388.676,-0.015 1414.201,-0.015 C1439.726,-0.015 1459.644,8.169 1478.906,16.084 C1489.363,20.381 1499.504,24.548 1510.370,27.449 L1510.526,26.939 C1520.876,29.850 1530.747,31.315 1540.668,31.406 C1550.587,31.315 1560.458,29.850 1570.810,26.939 L1570.966,27.449 C1581.832,24.547 1591.972,20.381 1602.429,16.084 C1621.692,8.169 1641.610,-0.015 1667.134,-0.015 C1692.659,-0.015 1712.577,8.169 1731.838,16.084 C1751.020,23.965 1769.137,31.410 1792.616,31.410 C1816.093,31.410 1834.210,23.966 1853.391,16.084 C1872.653,8.169 1892.572,-0.015 1918.097,-0.015 C1943.621,-0.015 1963.539,8.169 1982.801,16.084 C2001.982,23.965 2020.099,31.410 2043.577,31.410 C2067.056,31.410 2085.174,23.965 2104.354,16.084 C2123.616,8.169 2143.533,-0.015 2169.058,-0.015 C2194.584,-0.015 2214.501,8.169 2233.763,16.084 C2243.627,20.137 2253.210,24.075 2263.385,26.943 L2263.386,26.939 C2273.220,29.705 2282.621,31.165 2292.043,31.382 C2292.090,31.383 2292.138,31.384 2292.186,31.385 C2292.285,31.387 2292.384,31.389 2292.483,31.391 C2292.579,31.393 2292.676,31.394 2292.773,31.396 C2292.836,31.397 2292.899,31.398 2292.961,31.399 C2293.097,31.401 2293.234,31.402 2293.370,31.404 C2293.402,31.404 2293.434,31.405 2293.466,31.405 C2293.818,31.408 2294.172,31.410 2294.526,31.410 C2294.881,31.410 2295.234,31.408 2295.586,31.405 C2295.619,31.405 2295.651,31.404 2295.684,31.404 C2295.820,31.402 2295.955,31.401 2296.090,31.399 C2296.154,31.398 2296.218,31.397 2296.282,31.396 C2296.377,31.394 2296.473,31.393 2296.568,31.391 C2296.669,31.389 2296.769,31.387 2296.869,31.385 C2296.915,31.384 2296.961,31.383 2297.007,31.382 C2306.429,31.165 2315.831,29.705 2325.668,26.939 L2325.670,26.943 C2335.844,24.074 2345.426,20.137 2355.289,16.084 C2374.552,8.169 2394.470,-0.015 2419.994,-0.015 C2445.519,-0.015 2465.437,8.169 2484.699,16.084 C2503.880,23.965 2521.998,31.410 2545.476,31.410 C2568.953,31.410 2587.070,23.966 2606.252,16.084 C2625.513,8.169 2645.432,-0.015 2670.957,-0.015 C2696.481,-0.015 2716.399,8.169 2735.661,16.084 C2754.842,23.965 2772.959,31.410 2796.438,31.410 C2819.917,31.410 2838.034,23.965 2857.214,16.084 C2876.476,8.169 2896.393,-0.015 2921.919,-0.015 C2947.444,-0.015 2967.361,8.169 2986.624,16.084 C3005.559,23.864 3023.457,31.219 3046.500,31.406 C3069.543,31.219 3087.442,23.864 3106.376,16.084 C3125.639,8.169 3145.557,-0.015 3171.082,-0.015 C3196.606,-0.015 3216.524,8.169 3235.786,16.084 C3254.967,23.965 3273.085,31.410 3296.563,31.410 C3320.040,31.410 3338.157,23.966 3357.339,16.084 C3376.600,8.169 3396.519,-0.015 3422.044,-0.015 C3447.568,-0.015 3467.486,8.169 3486.748,16.084 C3505.929,23.965 3524.046,31.410 3547.525,31.410 C3571.004,31.410 3589.121,23.965 3608.301,16.084 C3627.563,8.169 3647.480,-0.015 3673.006,-0.015 C3698.531,-0.015 3718.448,8.169 3737.711,16.084 C3747.574,20.137 3757.157,24.075 3767.332,26.943 L3767.333,26.939 C3777.167,29.705 3786.568,31.165 3795.990,31.382 C3796.038,31.383 3796.086,31.384 3796.133,31.385 C3796.232,31.387 3796.331,31.389 3796.430,31.391 C3796.527,31.393 3796.623,31.394 3796.720,31.396 C3796.783,31.397 3796.846,31.398 3796.909,31.399 C3797.045,31.401 3797.181,31.402 3797.318,31.404 C3797.350,31.404 3797.382,31.405 3797.414,31.405 C3797.766,31.408 3798.119,31.410 3798.474,31.410 C3798.828,31.410 3799.181,31.408 3799.533,31.405 C3799.566,31.405 3799.599,31.404 3799.631,31.404 C3799.767,31.402 3799.902,31.401 3800.038,31.399 C3800.102,31.398 3800.165,31.397 3800.229,31.396 C3800.325,31.394 3800.420,31.393 3800.516,31.391 C3800.616,31.389 3800.716,31.387 3800.817,31.385 C3800.863,31.384 3800.909,31.383 3800.954,31.382 C3810.376,31.165 3819.778,29.705 3829.615,26.939 L3829.616,26.943 C3839.791,24.074 3849.373,20.137 3859.237,16.084 C3878.499,8.169 3898.418,-0.015 3923.942,-0.015 C3949.466,-0.015 3969.385,8.169 3988.646,16.084 C4007.828,23.965 4025.945,31.410 4049.423,31.410 C4072.900,31.410 4091.017,23.966 4110.199,16.084 C4129.460,8.169 4149.379,-0.015 4174.904,-0.015 C4200.429,-0.015 4220.346,8.169 4239.609,16.084 C4258.789,23.965 4276.906,31.410 4300.384,31.410 C4323.864,31.410 4341.981,23.965 4361.162,16.084 C4380.423,8.169 4400.341,-0.015 4425.866,-0.015 C4451.391,-0.015 4471.309,8.169 4490.571,16.084 C4501.028,20.381 4511.169,24.548 4522.035,27.449 L4522.191,26.939 C4532.541,29.850 4542.412,31.315 4552.332,31.406 C4562.252,31.315 4572.123,29.850 4582.475,26.939 L4582.631,27.449 C4593.497,24.547 4603.637,20.381 4614.094,16.084 C4633.356,8.169 4653.275,-0.015 4678.799,-0.015 C4704.323,-0.015 4724.242,8.169 4743.503,16.084 C4762.685,23.965 4780.802,31.410 4804.280,31.410 C4827.758,31.410 4845.875,23.966 4865.056,16.084 C4884.318,8.169 4904.236,-0.015 4929.762,-0.015 C4955.286,-0.015 4975.204,8.169 4994.466,16.084 C5013.646,23.965 5031.763,31.410 5055.242,31.410 C5078.721,31.410 5096.838,23.965 5116.019,16.084 C5135.280,8.169 5155.198,-0.015 5180.723,-0.015 C5206.248,-0.015 5226.166,8.169 5245.428,16.084 C5255.292,20.137 5264.875,24.075 5275.050,26.943 L5275.051,26.939 C5284.885,29.705 5294.286,31.165 5303.708,31.382 C5303.755,31.383 5303.803,31.384 5303.851,31.385 C5303.950,31.387 5304.049,31.389 5304.147,31.391 C5304.244,31.393 5304.341,31.394 5304.438,31.396 C5304.501,31.397 5304.563,31.398 5304.626,31.399 C5304.762,31.401 5304.899,31.402 5305.035,31.404 C5305.067,31.404 5305.099,31.405 5305.131,31.405 C5305.483,31.408 5305.837,31.410 5306.191,31.410 C5306.546,31.410 5306.899,31.408 5307.251,31.405 C5307.284,31.405 5307.316,31.404 5307.349,31.404 C5307.484,31.402 5307.620,31.401 5307.755,31.399 C5307.819,31.398 5307.883,31.397 5307.946,31.396 C5308.042,31.394 5308.138,31.393 5308.233,31.391 C5308.334,31.389 5308.434,31.387 5308.534,31.385 C5308.580,31.384 5308.626,31.383 5308.672,31.382 C5318.094,31.165 5327.496,29.705 5337.333,26.939 L5337.334,26.943 C5347.509,24.074 5357.091,20.137 5366.954,16.084 C5386.216,8.169 5406.135,-0.015 5431.659,-0.015 C5457.184,-0.015 5477.102,8.169 5496.364,16.084 C5515.545,23.965 5533.662,31.410 5557.141,31.410 C5580.618,31.410 5598.735,23.966 5617.916,16.084 C5637.178,8.169 5657.097,-0.015 5682.622,-0.015 C5708.146,-0.015 5728.064,8.169 5747.326,16.084 C5766.507,23.965 5784.624,31.410 5808.102,31.410 C5831.581,31.410 5849.698,23.965 5868.879,16.084 C5888.140,8.169 5908.058,-0.015 5933.583,-0.015 C5959.109,-0.015 5979.026,8.169 5998.288,16.084 C6017.469,23.965 6035.586,31.410 6059.065,31.410 C6069.316,31.410 6079.498,29.947 6090.193,26.939 L6093.000,36.131 C6081.381,39.401 6070.280,40.990 6059.065,40.990 Z"/>
</svg>
